Numix-GalliumOS/22/categories/preferences-mail-accounts.svg

<?xml version="1.0" encoding="UTF-8" standalone="no"?>
<svg
   xmlns:dc="http://purl.org/dc/elements/1.1/"
   xmlns:cc="http://creativecommons.org/ns#"
   xmlns:rdf="http://www.w3.org/1999/02/22-rdf-syntax-ns#"
   xmlns:svg="http://www.w3.org/2000/svg"
   xmlns="http://www.w3.org/2000/svg"
   xmlns:sodipodi="http://sodipodi.sourceforge.net/DTD/sodipodi-0.dtd"
   xmlns:inkscape="http://www.inkscape.org/namespaces/inkscape"
   width="22"
   height="22"
   viewBox="0 0 17.6 17.6"
   id="svg2"
   version="1.1"
   inkscape:version="0.91 r"
   sodipodi:docname="preferences-mail-accounts.svg">
  <metadata
     id="metadata10">
    <rdf:RDF>
      <cc:Work
         rdf:about="">
        <dc:format>image/svg+xml</dc:format>
        <dc:type
           rdf:resource="http://purl.org/dc/dcmitype/StillImage" />
        <dc:title />
      </cc:Work>
    </rdf:RDF>
  </metadata>
  <defs
     id="defs8" />
  <sodipodi:namedview
     pagecolor="#ffffff"
     bordercolor="#666666"
     borderopacity="1"
     objecttolerance="10"
     gridtolerance="10"
     guidetolerance="10"
     inkscape:pageopacity="0"
     inkscape:pageshadow="2"
     inkscape:window-width="1920"
     inkscape:window-height="1056"
     id="namedview6"
     showgrid="true"
     inkscape:zoom="25.343828"
     inkscape:cx="11.70235"
     inkscape:cy="11.169211"
     inkscape:window-x="0"
     inkscape:window-y="24"
     inkscape:window-maximized="1"
     inkscape:current-layer="svg2">
    <inkscape:grid
       type="xygrid"
       id="grid4153" />
  </sodipodi:namedview>
  <path
     style="fill:#555555"
     d="m 11.114226,6.4 1.371549,0 c 2.057324,0 2.013173,2.1002775 2.013173,2.1002775 l 0,1.7998155 c 0,0.685291 -1.199369,2.100278 -1.199369,2.100278 l 0,0.899906 L 16,14.799631 16,16 l -8.4,0 0,-1.200369 2.70042,-1.499354 0,-0.899906 c 0,0 -1.2037837,-1.414988 -1.1993685,-2.100278 l 0,-1.7998155 c 0,0 -0.044152,-2.1002775 2.0131745,-2.1002775 z"
     id="path4"
     inkscape:connector-curvature="0" />
  <path
     style="fill:#555555"
     d="M 5.1144532,1.6 C 3.0571259,1.6 3.1011719,3.7 3.1011719,3.7 l 0,1.8 C 3.0967567,6.1852915 4.3,7.6 4.3,7.6 l 0,0.9 -2.7,1.5 0,1.2 7.1589847,0 c -0.00317,-0.0064 -0.0074,-0.01229 -0.010549,-0.01875 C 8.6164381,10.911885 8.500096,10.644787 8.502346,10.296484 l 0,-1.128516 L 7.3,8.5 7.3,7.6 c 0,0 1.1988283,-1.4147085 1.1988283,-2.1 l 0,-1.8 c 0,0 0.044043,-2.1 -2.0132815,-2.1 l -1.3710936,0 z m 4.5867188,8.2335927 0,0.4675793 a 0.60006,0.60006 0 0 1 0,0.0024 c 3.6e-5,-0.0057 0.03293,0.161705 0.125391,0.350391 C 9.870083,10.742773 9.94113,10.845135 10,10.943415 L 10,10 9.701172,9.8335927 Z"
     id="path4-9"
     inkscape:connector-curvature="0" />
</svg>

<svg xmlns="http://www.w3.org/2000/svg" width="22" height="22" viewBox="0 0 17.6 17.6">
 <path d="m 11.11 6.4 1.372 0 c 2.057 0 2.01 2.1 2.01 2.1 l 0 1.8 c 0 0.685 -1.199 2.1 -1.199 2.1 l 0 0.9 l 2.7 1.499 0 1.2 l -8.4 0 0 -1.2 2.7 -1.499 0 -0.9 c 0 0 -1.204 -1.415 -1.199 -2.1 l 0 -1.8 c 0 0 -0.044 -2.1 2.01 -2.1 z" style="fill:#555"/>
 <path d="m 5.114 1.6 c -2.057 0 -2.01 2.1 -2.01 2.1 l 0 1.8 c -0.004 0.685 1.199 2.1 1.199 2.1 l 0 0.9 -2.7 1.5 0 1.2 7.159 0 c -0.003 -0.006 -0.007 -0.012 -0.011 -0.019 c -0.132 -0.269 -0.248 -0.536 -0.246 -0.885 l 0 -1.129 l -1.202 -0.668 0 -0.9 c 0 0 1.199 -1.415 1.199 -2.1 l 0 -1.8 c 0 0 0.044 -2.1 -2.01 -2.1 l -1.371 0 z m 4.587 8.234 0 0.468 a 0.6 0.6 0 0 1 0 0.002 c 0 -0.006 0.033 0.162 0.125 0.35 c 0.044 0.089 0.115 0.191 0.173 0.289 l 0 -0.943 -0.299 -0.166" style="fill:#555"/>
</svg>
